!!!OTL: 1450. Strahlaeugig Maegdelein.
!!!ARE: Europa, Mitteleuropa, Deutschland
!!!SCT: E1450
!!!TXL: @@DE
!!!YEM: Copyright 1995, estate of Helmut Schaffrath.
**kern	**text
*ICvox	*
*M2/4	*
*k[b-e-]	*
*B-:	*
!LO:TX:a:t=Mäßig bewegt.	!
!LO:TX:a:t=Durch ganʒ Deutſchland verbreitet.	!
{8f	Der
=1	=1
8.b-	Jä-
16a	-ger
8g	in
8f	dem
=2	=2
8.g	grü-
16f	-nen
8e-}	Wald
{8d	muß
=3	=3
8f	ſu-
8f	-chen
8g	ſei-
8a	-nen
=4	=4
8.b-L	Auf-
16ddJ	.
8.ccL	-ent-
16aJ	.
=5	=5
4b-	-halt.
8r}	.
{8b-	Er
=6	=6
8a	ging
8cc	im
8cc	Wald
8a	wohl
=7	=7
8b-	hin
8dd	und
8dd}	her,
{8b-	Er
=8	=8
8a	ging
8cc	im
8cc	Wald
8a	wohl
=9	=9
8b-	hin
8dd	und
8dd}	her,
{8f	ob
=10	=10
8.b-L	auch
16aJ	nichts
8g	an-
8f	-ʒu-
=11	=11
8.g	-tref-
16f	-fen
8e-}	wär,
{8d	ob
=12	=12
8f	auch
8f	nichts
8g	an-
8a	-ʒu-
=13	=13
8.b-L	-tref-
16ddJ	.
8.ccL	-fen
16aJ	.
=14	=14
4b-	wär.
8r}	.
==	==
!!!AGN: Staende -, Jaeger - Lied, Liebe
!!!ONB: ESAC (Essen Associative Code) Database: ERK3
!!!AMT: simple duple
!!!AIN: vox
!!!EED: Helmut Schaffrath
!!!EEV: 1.0
!!!GTL: Staendelieder (Berufslieder). 2. Jaegerlieder und Jaegerballaden.
!!!URL-scan: https://rosdok.uni-rostock.de/mcrviewer/recordIdentifier/rosdok_ppn745177999/iview2/phys_0315.iview2?x=-128.77276441889285&y=1362.9640646672342&scale=0.5870222003877487&rotation=0&layout=singlePageLayout
!!!ENC: Anna Maria Matuszewska
!!!EEV: 2024/12/31
*-	*-
